assets/symbols/mulberry/flag_laos.svg

<svg height="850.394" viewBox="0 0 850.394 850.394" width="850.394" xmlns="http://www.w3.org/2000/svg"><path d="m162.61 426v359.38h-39.49l-1.12-670.61c5.8 2.59 12.62 4.08 19.92 4.08 7.62 0 14.73-1.63 20.69-4.43z" fill="#c8c8c8"/><path d="m748.18 426v94.17h-579.62l-.87-94.17h576.31z" fill="#ed1e29"/><path d="m748.18 240v186h-580.49l-1.7-186zm-230.4 96c0-35.22-28.561-63.78-63.78-63.78-35.22 0-63.78 28.56-63.78 63.78s28.56 63.78 63.78 63.78 63.78-28.56 63.78-63.78z" fill="#394ea1"/><path d="m748.18 177.46v62.54h-582.19l-.92-99.66h583.11z" fill="#ed1e29"/><path d="m454 272.22c35.22 0 63.78 28.56 63.78 63.78s-28.56 63.78-63.78 63.78-63.78-28.56-63.78-63.78 28.56-63.78 63.78-63.78z" fill="#fff"/><path d="m162.61 114.42c-5.96 2.8-13.07 4.43-20.69 4.43-7.3 0-14.12-1.49-19.92-4.08-10.99-4.89-18.33-13.72-18.33-23.8 0-15.4 17.13-27.88 38.25-27.88 21.13 0 38.26 12.48 38.26 27.88 0 9.84-7 18.49-17.57 23.45z" fill="#c8c8c8"/><g fill="none"><g stroke="#231f20"><path d="m165.07 140.34h583.11v379.83h-579.62m-46.56-405.4c-10.99-4.89-18.33-13.72-18.33-23.8 0-15.4 17.13-27.88 38.25-27.88 21.13 0 38.26 12.48 38.26 27.88 0 9.84-7 18.49-17.57 23.45-5.96 2.8-13.07 4.43-20.69 4.43-7.3 0-14.12-1.49-19.92-4.08z" stroke-width="21"/><path d="m122 114v.77l1.12 670.61m39.49-672.78v672.78" stroke-width="21"/><path d="m744.76 179.39 3.42-1.93 2.01-1.14m-586.19 63.68h586m-588 186h582m-226.22-90c0 35.22-28.561 63.78-63.78 63.78-35.22 0-63.78-28.56-63.78-63.78s28.56-63.78 63.78-63.78 63.78 28.56 63.78 63.78z" stroke-width="14"/></g><path d="m0 0h850.394v850.394h-850.394z"/></g></svg>

<svg xmlns="http://www.w3.org/2000/svg" width="850.394" height="850.394" viewBox="0 0 850.394 850.394" overflow="visible"><path d="M162.61 426v359.38h-39.49L122 114.77c5.8 2.59 12.62 4.08 19.92 4.08 7.62 0 14.73-1.63 20.69-4.43V426z" fill="#c8c8c8"/><path fill="#ed1e29" d="M748.18 426v94.17H168.56l-.87-94.17H744z"/><path d="M748.18 240v186H167.69l-1.7-186h582.19zm-230.4 96c0-35.22-28.561-63.78-63.78-63.78-35.22 0-63.78 28.56-63.78 63.78s28.56 63.78 63.78 63.78 63.78-28.56 63.78-63.78z" fill="#394ea1"/><path fill="#ed1e29" d="M748.18 177.46V240H165.99l-.92-99.66h583.11z"/><path d="M454 272.22c35.22 0 63.78 28.56 63.78 63.78s-28.56 63.78-63.78 63.78-63.78-28.56-63.78-63.78 28.56-63.78 63.78-63.78z" fill="#fff"/><path d="M162.61 114.42c-5.96 2.8-13.07 4.43-20.69 4.43-7.3 0-14.12-1.49-19.92-4.08-10.99-4.89-18.33-13.72-18.33-23.8 0-15.4 17.13-27.88 38.25-27.88 21.13 0 38.26 12.48 38.26 27.88 0 9.84-7 18.49-17.57 23.45z" fill="#c8c8c8"/><g fill="none" stroke="#231f20"><path stroke-width="21" d="M165.07 140.34h583.11v379.83H168.56M122 114.77c-10.99-4.89-18.33-13.72-18.33-23.8 0-15.4 17.13-27.88 38.25-27.88 21.13 0 38.26 12.48 38.26 27.88 0 9.84-7 18.49-17.57 23.45-5.96 2.8-13.07 4.43-20.69 4.43-7.3 0-14.12-1.49-19.92-4.08z"/><path stroke-width="21" d="M122 114v.77l1.12 670.61M162.61 112.6v672.78"/><path stroke-width="14" d="M744.76 179.39l3.42-1.93 2.01-1.14M164 240H750M162 426h582M517.78 336c0 35.22-28.561 63.78-63.78 63.78-35.22 0-63.78-28.56-63.78-63.78s28.56-63.78 63.78-63.78 63.78 28.56 63.78 63.78z"/></g><path fill="none" d="M0 0h850.394v850.394H0z"/></svg>
